configs/network-logos/novastro.svg

<svg width="118" height="24" viewBox="0 0 118 24" fill="none" xmlns="http://www.w3.org/2000/svg">
<g clip-path="url(#clip0_11475_29844)">
<path d="M35.4718 1.80196C35.0775 1.11259 34.2338 0.292328 32.4474 0.292328C30.8065 0.292328 28.3145 0.99188 25.0399 2.37353C22.9756 0.820267 20.5171 0 17.9263 0C11.3523 0 6.0047 5.38262 6.0047 12C6.0047 12.4567 6.03088 12.925 6.08325 13.3904C5.45335 13.8747 4.86419 14.3473 4.33175 14.7967C3.17233 15.7755 1.72923 17.0685 0.847667 18.4007C-0.0935452 19.8216 -0.252111 21.1 0.377789 22.1981C0.773474 22.8874 1.62013 23.7077 3.40218 23.7077C5.04312 23.7077 7.53507 23.0081 10.8097 21.6265C12.8754 23.1797 15.3339 24 17.9263 24C24.4987 24 29.8463 18.6174 29.8463 12C29.8463 11.5419 29.8201 11.0765 29.7678 10.6125C30.3657 10.1529 30.9287 9.70207 31.4436 9.26867L31.5222 9.20327C31.5469 9.1814 31.5731 9.16107 31.5978 9.13927H31.6007C32.7456 8.16627 34.1436 6.901 35.0048 5.59932C35.946 4.17695 36.1031 2.90001 35.4747 1.80196H35.4718ZM8.57813 14.5015C10.5304 13.0689 12.8274 11.5521 15.2263 10.1122L19.3883 17.371L20.2378 16.8838C20.3135 16.8416 20.3905 16.7965 20.4647 16.7529L20.6044 16.6714C20.8823 16.51 21.1587 16.3471 21.4321 16.1857L21.6475 16.0591C23.7117 14.8287 25.6683 13.5663 27.4635 12.3054C27.3035 17.4553 23.0658 21.6105 17.9248 21.6105C16.2125 21.6105 14.5338 21.148 13.0689 20.2725C12.439 19.8943 11.8527 19.4464 11.329 18.9403L11.2301 18.8443L11.1035 18.901C10.4315 19.2006 9.77827 19.4798 9.16 19.7285C7.2718 20.4877 5.65265 20.9982 4.47432 21.2076C3.88515 21.3123 3.40655 21.3429 3.05159 21.2978C2.733 21.2571 2.52497 21.1581 2.43769 21.0055C2.34895 20.8513 2.36787 20.6215 2.49297 20.3219C2.63117 19.9903 2.89739 19.5875 3.28289 19.1264C4.05245 18.2058 5.30206 17.0496 6.89933 15.7843C7.40413 15.3814 7.9686 14.9509 8.57813 14.503V14.5015ZM27.2729 9.5014C25.3381 10.9223 23.0455 12.4363 20.6335 13.8834L16.4715 6.62611L16.1253 6.82387C15.8983 6.95333 15.6787 7.07987 15.4605 7.2064L15.2466 7.33C14.8989 7.53073 14.5527 7.73433 14.2137 7.93793C12.1175 9.19013 10.1594 10.4555 8.38753 11.6989C8.5476 6.54757 12.7852 2.39098 17.9277 2.39098C19.6385 2.39098 21.3172 2.85347 22.7821 3.73046C23.4033 4.09987 23.9896 4.54781 24.5249 5.06266L24.6238 5.15865L24.7489 5.10193C25.4167 4.80378 26.0699 4.52599 26.691 4.27439C28.5793 3.51521 30.1984 3.00473 31.3767 2.7953C31.9659 2.69058 32.4459 2.66004 32.7995 2.70513C33.118 2.74585 33.3261 2.84475 33.4133 2.99745C33.5021 3.15162 33.4831 3.38141 33.3581 3.68101C33.2199 4.01261 32.9537 4.41547 32.5681 4.8765C31.7986 5.79857 30.5489 6.9548 28.9517 8.22153C28.4134 8.64913 27.8475 9.08107 27.2729 9.50287V9.5014Z" fill="url(#paint0_linear_11475_29844)"/>
<path fill-rule="evenodd" clip-rule="evenodd" d="M43.8265 6.97046H41.4164V18.9633H43.8265V10.4999L50.835 18.9633H53.2274V6.97046H50.835V15.4339L43.8265 6.97046ZM59.6046 9.89941C57.9974 9.89941 56.8292 10.2661 56.1003 10.9965C55.3832 11.7269 55.0239 12.8862 55.0239 14.5082C55.0239 16.1302 55.3817 17.3072 56.1003 18.0376C56.8292 18.7577 57.9974 19.117 59.6046 19.117C61.2118 19.117 62.3799 18.7577 63.1088 18.0376C63.8378 17.3072 64.203 16.1184 64.203 14.5082C64.203 12.898 63.8378 11.7269 63.1088 10.9965C62.3799 10.2646 61.2118 9.89941 59.6046 9.89941ZM57.811 16.4097C57.4458 16.0105 57.264 15.3761 57.264 14.5082C57.264 13.6284 57.4458 12.9956 57.811 12.6067C58.1881 12.206 58.7854 12.0064 59.606 12.0064C60.4267 12.0064 61.0181 12.2075 61.3834 12.6067C61.7604 12.9941 61.9482 13.6403 61.9482 14.5082C61.9482 15.3761 61.7589 16.0105 61.3834 16.4097C61.0196 16.8104 60.4267 17.01 59.606 17.01C58.7854 17.01 58.1866 16.8089 57.811 16.4097ZM64.8802 10.0547H67.2727L69.6647 16.3772L72.0574 10.0547H74.4674L70.9467 18.9647H68.4007L64.8802 10.0547ZM75.742 18.468C76.2894 18.9013 77.138 19.1186 78.288 19.1186H78.2894C79.6914 19.1186 80.7174 18.7874 81.3667 18.125V18.9648H83.6227V13.7735C83.6227 12.4147 83.2874 11.4314 82.6147 10.8266C81.942 10.2101 80.8654 9.90104 79.384 9.90104C78.028 9.90104 77.0134 10.1524 76.3407 10.6552C75.668 11.146 75.2627 11.94 75.1267 13.0372H77.3494C77.5427 12.2491 78.1934 11.8543 79.298 11.8543C79.9814 11.8543 80.482 11.9918 80.802 12.2653C81.1314 12.5285 81.3194 12.9632 81.3654 13.568H78.6994C77.3774 13.568 76.4207 13.7838 75.828 14.2186C75.2347 14.6414 74.9394 15.3718 74.9394 16.3433C74.9394 17.3148 75.2067 18.023 75.742 18.468ZM78.8514 17.1654C77.7467 17.1654 77.194 16.8564 77.194 16.2398L77.1927 16.2413C77.1927 15.567 77.8934 15.2299 79.2954 15.2299H81.3634V15.4354C81.25 16.0298 80.994 16.469 80.5947 16.7544C80.2074 17.0279 79.626 17.1654 78.8514 17.1654ZM85.2034 16.1199H85.2049C85.3297 17.1586 85.7404 17.9181 86.4354 18.3969C87.13 18.8775 88.1387 19.117 89.5287 19.117C90.918 19.117 91.9327 18.8833 92.5714 18.4147C93.2207 17.9356 93.546 17.2155 93.546 16.2559C93.546 15.3879 93.2547 14.7537 92.6734 14.3544C92.092 13.9434 91.05 13.6299 89.546 13.4125C88.1787 13.2292 87.4954 12.932 87.4954 12.5209C87.4954 12.0759 88.0367 11.8527 89.1187 11.8527C89.744 11.8527 90.2174 11.9384 90.5367 12.1099C90.8667 12.2696 91.094 12.5328 91.22 12.898H93.442C93.3167 11.8467 92.9114 11.0882 92.228 10.6195C91.5554 10.1389 90.4854 9.89941 89.1514 9.89941C87.8174 9.89941 86.8434 10.1227 86.228 10.5677C85.6134 11.0025 85.3054 11.6811 85.3054 12.6067C85.3054 13.4865 85.5967 14.1489 86.178 14.5939C86.7587 15.0287 87.7454 15.3259 89.1354 15.4855C90.6267 15.6911 91.374 16.0119 91.374 16.4451C91.374 16.9257 90.8267 17.1652 89.5967 17.1652C88.366 17.1652 87.642 16.8163 87.426 16.1199H85.2049L85.2047 16.1184L85.2034 16.1199ZM98.0174 10.0548H100.442V12.1618H98.0154V15.5892C98.0154 16.0342 98.1174 16.3595 98.3234 16.5665C98.5287 16.7602 98.87 16.8578 99.3494 16.8578H100.597V18.9648H99.2813C98.0513 18.9648 97.1567 18.7194 96.5974 18.2284C96.0387 17.7376 95.7607 16.9494 95.7607 15.8642V12.1632H94.4607V10.0562H95.7607V8.12077H98.0174V10.0548ZM102.104 10.0532H104.36V10.859C104.929 10.2188 105.808 9.89941 106.992 9.89941H107.847V12.0064H106.309C105.614 12.0064 105.113 12.2001 104.805 12.589C104.509 12.9779 104.36 13.6166 104.36 14.5082V18.9632H102.104V10.0532ZM113.236 9.89941C111.629 9.89941 110.461 10.2661 109.732 10.9965C109.015 11.7269 108.655 12.8862 108.655 14.5082C108.655 16.1302 109.015 17.3072 109.732 18.0376C110.461 18.7577 111.629 19.117 113.236 19.117C114.843 19.117 116.011 18.7577 116.741 18.0376C117.469 17.3072 117.835 16.1184 117.835 14.5082C117.835 12.898 117.469 11.7269 116.741 10.9965C116.011 10.2646 114.843 9.89941 113.236 9.89941ZM111.441 16.4097C111.076 16.0105 110.894 15.3761 110.894 14.5082C110.894 13.6284 111.076 12.9956 111.441 12.6067C111.818 12.206 112.415 12.0064 113.236 12.0064C114.057 12.0064 114.648 12.2075 115.013 12.6067C115.391 12.9941 115.578 13.6403 115.578 14.5082C115.578 15.3761 115.389 16.0105 115.013 16.4097C114.65 16.8104 114.057 17.01 113.236 17.01C112.415 17.01 111.817 16.8089 111.441 16.4097Z" fill="black"/>
</g>
<defs>
<linearGradient id="paint0_linear_11475_29844" x1="17.9259" y1="0" x2="17.9259" y2="24" gradientUnits="userSpaceOnUse">
<stop stop-color="#21F2D9"/>
<stop offset="1" stop-color="#35DAEF"/>
</linearGradient>
<clipPath id="clip0_11475_29844">
<rect width="117.835" height="24" fill="white"/>
</clipPath>
</defs>
</svg>

<svg xmlns="http://www.w3.org/2000/svg" fill="none" viewBox="0 0 118 24">
  <g clip-path="url(#novastro_svg__a)">
    <path fill="url(#novastro_svg__b)" d="M35.472 1.802c-.395-.69-1.238-1.51-3.025-1.51-1.64 0-4.133.7-7.407 2.082A11.737 11.737 0 0 0 17.926 0C11.352 0 6.005 5.383 6.005 12c0 .457.026.925.078 1.39-.63.485-1.219.957-1.751 1.407-1.16.978-2.603 2.271-3.484 3.604-.942 1.42-1.1 2.699-.47 3.797.395.69 1.242 1.51 3.024 1.51 1.641 0 4.133-.7 7.408-2.081A11.746 11.746 0 0 0 17.926 24c6.573 0 11.92-5.383 11.92-12 0-.458-.026-.924-.078-1.387.598-.46 1.16-.91 1.676-1.344l.078-.066.076-.064h.003c1.145-.973 2.543-2.238 3.404-3.54.941-1.422 1.098-2.699.47-3.797h-.003Zm-26.894 12.7c1.952-1.433 4.25-2.95 6.648-4.39l4.162 7.259.85-.487c.076-.042.152-.087.227-.131l.14-.082c.277-.161.554-.324.827-.485l.216-.127a93.117 93.117 0 0 0 5.816-3.754c-.16 5.15-4.398 9.305-9.54 9.305a9.466 9.466 0 0 1-6.595-2.67l-.099-.096-.127.057c-.671.3-1.325.579-1.943.828-1.888.759-3.507 1.27-4.686 1.479-.589.104-1.067.135-1.422.09-.319-.04-.527-.14-.614-.292-.09-.155-.07-.384.055-.684.138-.332.404-.735.79-1.196.77-.92 2.02-2.076 3.616-3.342.505-.403 1.07-.833 1.68-1.281v-.002Zm18.695-5c-1.935 1.42-4.227 2.934-6.64 4.381l-4.162-7.257-.346.198-.665.382-.213.124a95.075 95.075 0 0 0-6.86 4.369c.16-5.151 4.398-9.308 9.54-9.308 1.712 0 3.39.462 4.855 1.34a9.567 9.567 0 0 1 1.743 1.332l.099.096.125-.057a60.565 60.565 0 0 1 1.942-.828c1.888-.759 3.507-1.27 4.686-1.479.589-.104 1.069-.135 1.423-.09.318.04.526.14.613.292.09.155.07.384-.055.684-.138.332-.404.734-.79 1.196-.77.922-2.02 2.078-3.616 3.345a55.82 55.82 0 0 1-1.68 1.28Z"/>
    <path fill="#000" fill-rule="evenodd" d="M43.827 6.97h-2.41v11.993h2.41V10.5l7.008 8.463h2.392V6.97h-2.392v8.464L43.827 6.97ZM59.605 9.9c-1.608 0-2.776.366-3.505 1.096-.717.73-1.076 1.89-1.076 3.512s.358 2.8 1.076 3.53c.73.72 1.897 1.079 3.505 1.079 1.607 0 2.775-.36 3.504-1.08.729-.73 1.094-1.919 1.094-3.529 0-1.61-.365-2.781-1.094-3.511-.73-.732-1.897-1.098-3.504-1.098Zm-1.794 6.51c-.365-.4-.547-1.034-.547-1.902 0-.88.182-1.512.547-1.901.377-.401.974-.6 1.795-.6.82 0 1.412.2 1.777.6.377.387.565 1.033.565 1.901 0 .868-.19 1.503-.565 1.902-.363.4-.956.6-1.777.6-.82 0-1.42-.201-1.795-.6Zm7.07-6.355h2.392l2.392 6.322 2.392-6.322h2.41l-3.52 8.91H68.4l-3.52-8.91Zm10.861 8.413c.547.433 1.396.65 2.546.65h.001c1.402 0 2.428-.33 3.078-.993v.84h2.256v-5.191c0-1.36-.336-2.343-1.008-2.947-.673-.617-1.75-.926-3.231-.926-1.356 0-2.37.251-3.043.754-.673.491-1.078 1.285-1.214 2.382h2.222c.194-.788.844-1.183 1.949-1.183.683 0 1.184.138 1.504.411.33.263.517.698.563 1.303H78.7c-1.322 0-2.278.216-2.871.65-.593.423-.889 1.154-.889 2.125 0 .972.268 1.68.803 2.125Zm3.11-1.303c-1.105 0-1.658-.309-1.658-.925l-.001.001c0-.674.7-1.011 2.102-1.011h2.068v.205c-.113.595-.369 1.034-.768 1.32-.388.273-.969.41-1.744.41Zm6.351-1.045h.002c.125 1.039.535 1.798 1.23 2.277.695.48 1.704.72 3.094.72 1.389 0 2.404-.234 3.042-.702.65-.48.975-1.2.975-2.16 0-.867-.291-1.501-.873-1.9-.581-.412-1.623-.725-3.127-.943-1.367-.183-2.05-.48-2.05-.891 0-.445.54-.668 1.623-.668.625 0 1.098.085 1.418.257.33.16.557.423.683.788h2.222c-.125-1.051-.53-1.81-1.214-2.278-.673-.481-1.743-.72-3.077-.72-1.334 0-2.308.223-2.923.668-.615.434-.923 1.113-.923 2.039 0 .88.292 1.542.873 1.987.58.435 1.567.732 2.957.892 1.492.205 2.239.526 2.239.96 0 .48-.547.72-1.777.72-1.231 0-1.955-.35-2.171-1.046h-2.221v-.002l-.002.002Zm12.814-6.065h2.425v2.107h-2.427v3.427c0 .445.102.77.308.978.206.193.547.29 1.026.29h1.248v2.108h-1.316c-1.23 0-2.124-.246-2.684-.737-.558-.49-.836-1.279-.836-2.364v-3.7h-1.3v-2.108h1.3V8.121h2.256v1.934Zm4.087-.002h2.256v.806c.569-.64 1.448-.96 2.632-.96h.855v2.107h-1.538c-.695 0-1.196.194-1.504.583-.296.389-.445 1.028-.445 1.92v4.454h-2.256v-8.91Zm11.132-.154c-1.607 0-2.775.367-3.504 1.098-.717.73-1.077 1.89-1.077 3.511 0 1.622.36 2.8 1.077 3.53.729.72 1.897 1.079 3.504 1.079s2.775-.36 3.505-1.08c.728-.73 1.094-1.919 1.094-3.529 0-1.61-.366-2.781-1.094-3.511-.73-.732-1.898-1.098-3.505-1.098Zm-1.795 6.51c-.365-.398-.547-1.033-.547-1.9 0-.88.182-1.513.547-1.902.377-.401.974-.6 1.795-.6s1.412.2 1.777.6c.378.387.565 1.033.565 1.901 0 .868-.189 1.503-.565 1.902-.363.4-.956.6-1.777.6s-1.419-.201-1.795-.6Z" clip-rule="evenodd"/>
  </g>
  <defs>
    <linearGradient id="novastro_svg__b" x1="17.926" x2="17.926" y1="0" y2="24" gradientUnits="userSpaceOnUse">
      <stop stop-color="#21F2D9"/>
      <stop offset="1" stop-color="#35DAEF"/>
    </linearGradient>
    <clipPath id="novastro_svg__a">
      <path fill="#fff" d="M0 0h117.835v24H0z"/>
    </clipPath>
  </defs>
</svg>
